svgs/solid/face-smile-hearts.svg

<svg xmlns="http://www.w3.org/2000/svg" viewBox="0 0 640 512"><!--! Font Awesome Pro 6.1.2 by @fontawesome - https://fontawesome.com License - https://fontawesome.com/license (Commercial License) Copyright 2022 Fonticons, Inc. --><path d="M448.2 34.34C446.9 54.04 453.7 74.18 468.7 89.25L524.2 145.1C533.4 154.3 545.3 159.3 557.4 159.9C569.4 189.6 576 222 576 256C576 293.4 567.1 329 553.5 361.1C526.5 345.8 491.6 349.8 468.7 372.9C442.8 398.9 441.2 439.9 463.8 467.8C422.8 495.7 373.3 512 320 512C258.7 512 202.4 490.4 158.3 454.4L171.3 441.3C198.9 413.6 198.9 368.7 171.3 340.9C146.5 315.1 107.7 313.4 80.04 333.3C78.34 332 76.59 330.9 74.81 329.8C67.78 306.5 64 281.7 64 256C64 114.6 178.6 .0006 320 .0006C366.7 .0006 410.5 12.5 448.2 34.34V34.34zM203.9 346.5C226.2 372.1 264.9 400 320 400C375.1 400 413.8 372.1 436.1 346.5C441.9 339.8 441.2 329.7 434.5 323.9C427.8 318.1 417.7 318.8 411.9 325.5C393.1 346.2 363.4 368 320 368C276.6 368 246 346.2 228.1 325.5C222.3 318.8 212.2 318.1 205.5 323.9C198.8 329.7 198.1 339.8 203.9 346.5H203.9zM204.8 233.6C222.4 210.1 257.6 210.1 275.2 233.6C280.5 240.7 290.5 242.1 297.6 236.8C304.7 231.5 306.1 221.5 300.8 214.4C270.4 173.9 209.6 173.9 179.2 214.4C173.9 221.5 175.3 231.5 182.4 236.8C189.5 242.1 199.5 240.7 204.8 233.6zM457.6 236.8C464.7 231.5 466.1 221.5 460.8 214.4C430.4 173.9 369.6 173.9 339.2 214.4C333.9 221.5 335.3 231.5 342.4 236.8C349.5 242.1 359.5 240.7 364.8 233.6C382.4 210.1 417.6 210.1 435.2 233.6C440.5 240.7 450.5 242.1 457.6 236.8zM573.7 11.5C588.9-3.757 613.5-3.757 628.6 11.5C643.8 26.76 643.8 51.49 628.6 66.75L573.2 122.5C565.9 129.8 554.1 129.8 546.9 122.5L491.4 66.69C476.2 51.43 476.2 26.7 491.4 11.44C506.5-3.814 531.1-3.814 546.3 11.44L560 25.27L573.7 11.5zM628.6 450.7L573.2 506.5C565.9 513.8 554.1 513.8 546.9 506.5L491.4 450.7C476.2 435.4 476.2 410.7 491.4 395.4C506.5 380.2 531.1 380.2 546.3 395.4L560 409.3L573.7 395.5C588.9 380.2 613.5 380.2 628.6 395.5C643.8 410.8 643.8 435.5 628.6 450.7L628.6 450.7zM93.71 363.5C108.9 348.2 133.5 348.2 148.6 363.5C163.8 378.8 163.8 403.5 148.6 418.7L93.2 474.5C85.93 481.8 74.13 481.8 66.86 474.5L11.37 418.7C-3.791 403.4-3.791 378.7 11.37 363.4C26.54 348.2 51.12 348.2 66.29 363.4L80.03 377.3L93.71 363.5z"/></svg>

<svg xmlns="http://www.w3.org/2000/svg" viewBox="0 0 640 512"><!--! Font Awesome Pro 6.2.0 by @fontawesome - https://fontawesome.com License - https://fontawesome.com/license (Commercial License) Copyright 2022 Fonticons, Inc. --><path d="M448.2 34.3c-1.3 19.7 5.5 39.8 20.5 54.9l55.5 55.8c9.2 9.3 21.1 14.2 33.2 14.9C569.4 189.6 576 222 576 256c0 37.4-8 73-22.5 105.1c-27-15.2-61.9-11.3-84.8 11.8c-25.8 26-27.5 67.1-4.9 94.9C422.8 495.7 373.3 512 320 512c-61.3 0-117.6-21.6-161.7-57.6l13.1-13.1c27.6-27.7 27.6-72.6 0-100.4c-24.8-25-63.6-27.6-91.3-7.7c-1.7-1.2-3.5-2.4-5.2-3.4C67.8 306.5 64 281.7 64 256C64 114.6 178.6 0 320 0c46.7 0 90.5 12.5 128.2 34.3zM205.5 323.9c-6.7 5.8-7.4 15.9-1.6 22.6c22.2 25.7 61 53.5 116.1 53.5s93.8-27.9 116.1-53.5c5.8-6.7 5.1-16.8-1.6-22.6s-16.8-5.1-22.6 1.6C394 346.2 363.4 368 320 368s-74-21.8-91.9-42.5c-5.8-6.7-15.9-7.4-22.6-1.6zm-.7-90.3c17.6-23.5 52.8-23.5 70.4 0c5.3 7.1 15.3 8.5 22.4 3.2s8.5-15.3 3.2-22.4c-30.4-40.5-91.2-40.5-121.6 0c-5.3 7.1-3.9 17.1 3.2 22.4s17.1 3.9 22.4-3.2zm230.4 0c5.3 7.1 15.3 8.5 22.4 3.2s8.5-15.3 3.2-22.4c-30.4-40.5-91.2-40.5-121.6 0c-5.3 7.1-3.9 17.1 3.2 22.4s17.1 3.9 22.4-3.2c17.6-23.5 52.8-23.5 70.4 0zM573.7 11.5c15.2-15.3 39.8-15.3 54.9 0s15.2 40 0 55.2l-55.4 55.8c-7.3 7.3-19.1 7.3-26.3 0L491.4 66.7c-15.2-15.3-15.2-40 0-55.2s39.8-15.3 54.9 0L560 25.3l13.7-13.8zm54.9 384c15.2 15.3 15.2 40 0 55.2l-55.4 55.8c-7.3 7.3-19.1 7.3-26.3 0l-55.5-55.8c-15.2-15.3-15.2-40 0-55.2s39.8-15.3 54.9 0L560 409.3l13.7-13.8c15.2-15.3 39.8-15.3 54.9 0zm-534.9-32c15.2-15.3 39.8-15.3 54.9 0s15.2 40 0 55.2L93.2 474.5c-7.3 7.3-19.1 7.3-26.3 0L11.4 418.7c-15.2-15.3-15.2-40 0-55.2s39.8-15.3 54.9 0L80 377.3l13.7-13.8z"/></svg>
